picto/tracks-18-fr-large.svg

<svg class="color-immutable" width="24" height="24" viewBox="0 0 24 24" fill="none" xmlns="http://www.w3.org/2000/svg"><path d="M0 22.5V1.5C0 0.675 0.675 0 1.5 0H22.5C23.325 0 24 0.675 24 1.5V22.5C24 23.325 23.325 24 22.5 24H1.5C0.675 24 0 23.325 0 22.5Z" fill="#2D327D"/><path d="M8.82499 7.508V21H6.13099V12.168H5.17099H4.21099H3.27899H2.95599V10.212C3.61399 10.194 4.15099 10.126 4.56599 10.009C4.98099 9.892 5.36099 9.701 5.70599 9.437C6.20499 9.055 6.53999 8.412 6.71199 7.508H8.82499Z" fill="white"/><path d="M13.541 13.756C12.913 13.541 12.432 13.187 12.097 12.695C11.762 12.203 11.594 11.606 11.594 10.905C11.594 9.736 12.074 8.804 13.034 8.109C13.883 7.494 14.892 7.186 16.061 7.186C17.39 7.186 18.476 7.552 19.319 8.284C20.119 8.973 20.519 9.825 20.519 10.84C20.519 11.548 20.35 12.154 20.011 12.658C19.673 13.163 19.193 13.529 18.571 13.756C19.057 13.898 19.454 14.079 19.761 14.3C20.616 14.921 21.044 15.829 21.044 17.022C21.044 18.394 20.518 19.486 19.466 20.298C18.58 20.981 17.442 21.322 16.051 21.322C14.544 21.322 13.344 20.947 12.452 20.196C11.523 19.415 11.058 18.39 11.058 17.123C11.058 15.936 11.47 15.016 12.295 14.364C12.671 14.076 13.086 13.873 13.541 13.756ZM16.005 14.771C15.341 14.771 14.798 14.976 14.376 15.385C13.954 15.794 13.744 16.319 13.744 16.958C13.744 17.616 13.958 18.152 14.385 18.564C14.813 18.976 15.368 19.182 16.051 19.182C16.826 19.182 17.408 18.954 17.795 18.499C18.17 18.062 18.358 17.558 18.358 16.986C18.358 16.334 18.143 15.799 17.712 15.38C17.3 14.974 16.731 14.771 16.005 14.771ZM16.024 9.28C15.433 9.28 14.956 9.445 14.594 9.774C14.231 10.103 14.05 10.535 14.05 11.071C14.05 11.631 14.233 12.079 14.599 12.414C14.965 12.749 15.456 12.917 16.071 12.917C16.686 12.917 17.172 12.751 17.529 12.419C17.886 12.087 18.064 11.635 18.064 11.062C18.064 10.502 17.884 10.065 17.524 9.752C17.163 9.437 16.663 9.28 16.024 9.28Z" fill="white"/><path d="M5.036 3L4.288 5.249H3.73L2.993 3H3.507L4.013 4.684L4.527 3H5.036Z" fill="white"/><path d="M5.87399 3.523C6.11799 3.523 6.31699 3.604 6.47199 3.766C6.62499 3.926 6.70099 4.139 6.70099 4.406C6.70099 4.682 6.61899 4.902 6.45599 5.066C6.30399 5.218 6.10499 5.295 5.85999 5.295C5.59899 5.295 5.38999 5.21 5.23599 5.04C5.08799 4.877 5.01399 4.667 5.01399 4.409C5.01399 4.155 5.08599 3.948 5.22899 3.789C5.38899 3.612 5.60299 3.523 5.87399 3.523ZM5.85099 3.871C5.73299 3.871 5.63899 3.919 5.56999 4.014C5.49899 4.11 5.46299 4.242 5.46299 4.409C5.46299 4.582 5.49799 4.715 5.56799 4.807C5.63999 4.9 5.73799 4.947 5.86199 4.947C5.97799 4.947 6.06999 4.904 6.13699 4.819C6.21399 4.725 6.25199 4.588 6.25199 4.408C6.25199 4.24 6.21799 4.109 6.14999 4.016C6.07999 3.919 5.97999 3.871 5.85099 3.871Z" fill="white"/><path d="M7.44899 3V3.401H7.00299V3H7.44899ZM7.44899 3.572V5.249H7.00299V3.572H7.44899Z" fill="white"/><path d="M9.32099 4.726C9.29699 4.82 9.25499 4.909 9.19299 4.992C9.04499 5.194 8.83299 5.295 8.55599 5.295C8.30599 5.295 8.10499 5.216 7.95499 5.058C7.88099 4.981 7.82499 4.888 7.78599 4.78C7.74399 4.664 7.72299 4.543 7.72299 4.417C7.72299 4.173 7.79299 3.968 7.93399 3.802C8.09099 3.616 8.29399 3.524 8.54299 3.524C8.74399 3.524 8.91499 3.586 9.05699 3.71C9.15899 3.799 9.23199 3.909 9.27799 4.04C9.32399 4.171 9.34699 4.335 9.34699 4.533H8.17699C8.18099 4.615 8.19399 4.683 8.21499 4.738C8.27499 4.885 8.38999 4.958 8.55999 4.958C8.64299 4.958 8.71099 4.94 8.76299 4.903C8.81499 4.867 8.85799 4.808 8.89199 4.727H9.32099V4.726ZM8.89199 4.232C8.88399 4.151 8.86499 4.084 8.83599 4.031C8.80799 3.978 8.76699 3.937 8.71399 3.906C8.66099 3.875 8.60399 3.86 8.54099 3.86C8.44199 3.86 8.35999 3.893 8.29499 3.96C8.22999 4.026 8.19199 4.117 8.17999 4.232H8.89199Z" fill="white"/></svg>

<svg class="color-immutable" width="24" height="24" viewBox="0 0 24 24" fill="none" xmlns="http://www.w3.org/2000/svg"><g clip-path="url(#a)"><path d="M0 22.5v-21C0 .675.675 0 1.5 0h21c.825 0 1.5.675 1.5 1.5v21c0 .825-.675 1.5-1.5 1.5h-21C.675 24 0 23.325 0 22.5Z" fill="#2D327D"/><path d="M8.825 7.508V21H6.131v-8.832H2.956v-1.956c.658-.018 1.195-.086 1.61-.203a3.362 3.362 0 0 0 1.14-.572c.499-.382.834-1.025 1.006-1.929h2.113ZM13.541 13.756c-.628-.215-1.109-.569-1.444-1.061-.335-.492-.503-1.089-.503-1.79 0-1.169.48-2.101 1.44-2.796.849-.615 1.858-.923 3.027-.923 1.329 0 2.415.366 3.258 1.098.8.689 1.2 1.541 1.2 2.556 0 .708-.169 1.314-.508 1.818-.338.505-.818.871-1.44 1.098.486.142.883.323 1.19.544.855.621 1.283 1.529 1.283 2.722 0 1.372-.526 2.464-1.578 3.276-.886.683-2.024 1.024-3.415 1.024-1.507 0-2.707-.375-3.599-1.126-.929-.781-1.394-1.806-1.394-3.073 0-1.187.412-2.107 1.237-2.759a3.438 3.438 0 0 1 1.246-.608Zm2.464 1.015c-.664 0-1.207.205-1.629.614-.422.409-.632.934-.632 1.573 0 .658.214 1.194.641 1.606.428.412.983.618 1.666.618.775 0 1.357-.228 1.744-.683.375-.437.563-.941.563-1.513 0-.652-.215-1.187-.646-1.606-.412-.406-.981-.609-1.707-.609Zm.019-5.491c-.591 0-1.068.165-1.43.494-.363.329-.544.761-.544 1.297 0 .56.183 1.008.549 1.343.366.335.857.503 1.472.503s1.101-.166 1.458-.498c.357-.332.535-.784.535-1.357 0-.56-.18-.997-.54-1.31-.361-.315-.861-.472-1.5-.472ZM5.036 3l-.748 2.249H3.73L2.993 3h.514l.506 1.684L4.527 3h.509ZM5.874 3.523a.79.79 0 0 1 .598.243c.153.16.229.373.229.64 0 .276-.082.496-.245.66a.807.807 0 0 1-.596.229c-.261 0-.47-.085-.624-.255-.148-.163-.222-.373-.222-.631 0-.254.072-.461.215-.62.16-.177.374-.266.645-.266Zm-.023.348a.33.33 0 0 0-.281.143.652.652 0 0 0-.107.395c0 .173.035.306.105.398.072.093.17.14.294.14a.332.332 0 0 0 .275-.128c.077-.094.115-.231.115-.411 0-.168-.034-.299-.102-.392a.347.347 0 0 0-.299-.145ZM7.449 3v.401h-.446V3h.446Zm0 .572v1.677h-.446V3.572h.446ZM9.321 4.726a.752.752 0 0 1-.128.266c-.148.202-.36.303-.637.303-.25 0-.451-.079-.601-.237a.775.775 0 0 1-.169-.278 1.058 1.058 0 0 1-.063-.363c0-.244.07-.449.211-.615a.76.76 0 0 1 .609-.278.754.754 0 0 1 .735.516c.046.131.069.295.069.493h-1.17c.004.082.017.15.038.205.06.147.175.22.345.22a.343.343 0 0 0 .203-.055.39.39 0 0 0 .129-.176h.429v-.001Zm-.429-.494a.525.525 0 0 0-.056-.201.334.334 0 0 0-.295-.171.328.328 0 0 0-.246.1.44.44 0 0 0-.115.272h.712Z" fill="#fff"/></g><defs><clipPath id="a"><path fill="#fff" d="M0 0h24v24H0z"/></clipPath></defs></svg>
